src/public/img/landing/new/dev-friendly/dev-friendly-bg.svg

<svg width="324" height="240" viewBox="0 0 324 240" fill="none" xmlns="http://www.w3.org/2000/svg">
<g opacity="0.4">
<rect x="1" width="40" height="8" rx="4" fill="white"/>
<rect opacity="0.6" x="53" width="16" height="8" rx="4" fill="white"/>
<g opacity="0.4">
<path d="M25.0001 78C24.4478 78.0001 24.0001 77.5524 24 77.0001C23.9999 76.4478 24.4476 76.0001 24.9999 76L25.0001 78ZM30.7071 87.2927C31.0976 87.6832 31.0976 88.3164 30.7071 88.7069C30.3166 89.0975 29.6834 89.0975 29.2929 88.7069L30.7071 87.2927ZM24.9999 76C26.5523 75.9998 29 77.4476 29 80.9999H27C27 78.5521 25.4477 77.9999 25.0001 78L24.9999 76ZM29 80.9999C29 83.0539 29.0072 84.1556 29.2201 85.0073C29.4093 85.7638 29.7748 86.3604 30.7071 87.2927L29.2929 88.7069C28.2252 87.6392 27.5907 86.7359 27.2799 85.4924C26.9928 84.3442 27 82.9458 27 80.9999H29Z" fill="white"/>
<path d="M25.0001 97.9995C24.4478 97.9994 24.0001 98.4471 24 98.9994C23.9999 99.5517 24.4476 99.9994 24.9999 99.9995L25.0001 97.9995ZM30.7071 88.7068C31.0976 88.3163 31.0976 87.6831 30.7071 87.2926C30.3166 86.9021 29.6834 86.9021 29.2929 87.2926L30.7071 88.7068ZM24.9999 99.9995C26.5523 99.9997 29 98.5519 29 94.9996H27C27 97.4474 25.4477 97.9996 25.0001 97.9995L24.9999 99.9995ZM29 94.9996C29 92.9456 29.0072 91.844 29.2201 90.9922C29.4093 90.2357 29.7748 89.6391 30.7071 88.7068L29.2929 87.2926C28.2252 88.3603 27.5907 89.2636 27.2799 90.5071C26.9928 91.6554 27 93.0537 27 94.9996H29Z" fill="white"/>
</g>
<rect x="42" y="56" width="47" height="8" rx="4" fill="white"/>
<rect x="253" y="56" width="24" height="8" rx="4" fill="white"/>
<rect opacity="0.6" x="289" y="56" width="14" height="8" rx="4" fill="white"/>
<path opacity="0.3" d="M241.252 49C234.249 56 234.249 64 241.252 71" stroke="white" stroke-width="2" stroke-linecap="round"/>
<path opacity="0.3" d="M315 49C322.003 56 322.003 64 315 71" stroke="white" stroke-width="2" stroke-linecap="round"/>
<path opacity="0.3" d="M30.2524 21C23.2491 28 23.2493 36 30.2524 43" stroke="white" stroke-width="2" stroke-linecap="round"/>
<rect x="42.252" y="28" width="22" height="8" rx="4" fill="white"/>
<rect x="128" y="28" width="77" height="8" rx="4" fill="white"/>
<g opacity="0.4">
<path d="M81.252 21.0002C80.252 21.0001 78.252 22.0001 78.252 25.0002C78.252 29.0001 78.252 30.0001 76.252 32.0001" stroke="white" stroke-width="2" stroke-linecap="round"/>
<path d="M81.252 42.9998C80.252 42.9999 78.252 41.9999 78.252 38.9998C78.252 34.9999 78.252 33.9999 76.252 31.9999" stroke="white" stroke-width="2" stroke-linecap="round"/>
</g>
<g opacity="0.4">
<path d="M93.2521 22.0002C92.6998 22.0003 92.252 21.5526 92.252 21.0004C92.2519 20.4481 92.6996 20.0003 93.2518 20.0002L93.2521 22.0002ZM98.9591 31.293C99.3496 31.6835 99.3496 32.3167 98.9591 32.7072C98.5685 33.0977 97.9354 33.0977 97.5448 32.7072L98.9591 31.293ZM93.2518 20.0002C94.8043 20.0001 97.252 21.4479 97.252 25.0002H95.252C95.252 22.5524 93.6996 22.0002 93.2521 22.0002L93.2518 20.0002ZM97.252 25.0002C97.252 27.0542 97.2592 28.1558 97.4721 29.0075C97.6612 29.764 98.0267 30.3607 98.9591 31.293L97.5448 32.7072C96.4772 31.6395 95.8427 30.7361 95.5318 29.4926C95.2448 28.3444 95.252 26.9461 95.252 25.0002H97.252Z" fill="white"/>
<path d="M93.2521 41.9998C92.6998 41.9997 92.252 42.4474 92.252 42.9996C92.2519 43.5519 92.6996 43.9997 93.2518 43.9998L93.2521 41.9998ZM98.9591 32.707C99.3496 32.3165 99.3496 31.6833 98.9591 31.2928C98.5685 30.9023 97.9354 30.9023 97.5448 31.2928L98.9591 32.707ZM93.2518 43.9998C94.8043 43.9999 97.252 42.5521 97.252 38.9998H95.252C95.252 41.4476 93.6996 41.9998 93.2521 41.9998L93.2518 43.9998ZM97.252 38.9998C97.252 36.9458 97.2592 35.8442 97.4721 34.9925C97.6612 34.236 98.0267 33.6393 98.9591 32.707L97.5448 31.2928C96.4772 32.3605 95.8427 33.2639 95.5318 34.5074C95.2448 35.6556 95.252 37.0539 95.252 38.9998H97.252Z" fill="white"/>
</g>
<circle cx="87.252" cy="32" r="2" fill="white"/>
<path opacity="0.3" d="M110.253 21C117.256 28 117.256 36 110.253 43" stroke="white" stroke-width="2" stroke-linecap="round"/>
<g opacity="0.4">
<path d="M217 21.0002C218 21.0001 220 22.0001 220 25.0002C220 29.0001 220 30.0001 222 32.0001" stroke="white" stroke-width="2" stroke-linecap="round"/>
<path d="M217 42.9998C218 42.9999 220 41.9999 220 38.9998C220 34.9999 220 33.9999 222 31.9999" stroke="white" stroke-width="2" stroke-linecap="round"/>
</g>
<rect opacity="0.6" x="1" y="112" width="72" height="8" rx="4" fill="white"/>
<g opacity="0.4">
<path d="M90 105C89 105 87 106 87 109C87 113 87 114 85 116" stroke="white" stroke-width="2" stroke-linecap="round"/>
<path d="M90 127C89 127 87 126 87 123C87 119 87 118 85 116" stroke="white" stroke-width="2" stroke-linecap="round"/>
</g>
<rect opacity="0.6" x="18" y="196" width="80" height="8" rx="4" fill="white"/>
<g opacity="0.4">
<path d="M115.252 189C114.252 189 112.252 190 112.252 193C112.252 197 112.252 198 110.252 200" stroke="white" stroke-width="2" stroke-linecap="round"/>
<path d="M115.252 211C114.252 211 112.252 210 112.252 207C112.252 203 112.252 202 110.252 200" stroke="white" stroke-width="2" stroke-linecap="round"/>
</g>
<g opacity="0.4">
<path d="M127.252 190C126.7 190 126.252 189.553 126.252 189C126.252 188.448 126.7 188 127.252 188L127.252 190ZM132.959 199.293C133.35 199.683 133.35 200.317 132.959 200.707C132.569 201.098 131.935 201.098 131.545 200.707L132.959 199.293ZM127.252 188C128.804 188 131.252 189.448 131.252 193H129.252C129.252 190.552 127.7 190 127.252 190L127.252 188ZM131.252 193C131.252 195.054 131.259 196.156 131.472 197.008C131.661 197.764 132.027 198.361 132.959 199.293L131.545 200.707C130.477 199.639 129.843 198.736 129.532 197.493C129.245 196.344 129.252 194.946 129.252 193H131.252Z" fill="white"/>
<path d="M127.252 210C126.7 210 126.252 210.447 126.252 211C126.252 211.552 126.7 212 127.252 212L127.252 210ZM132.959 200.707C133.35 200.317 133.35 199.683 132.959 199.293C132.569 198.902 131.935 198.902 131.545 199.293L132.959 200.707ZM127.252 212C128.804 212 131.252 210.552 131.252 207H129.252C129.252 209.448 127.7 210 127.252 210L127.252 212ZM131.252 207C131.252 204.946 131.259 203.844 131.472 202.992C131.661 202.236 132.027 201.639 132.959 200.707L131.545 199.293C130.477 200.361 129.843 201.264 129.532 202.507C129.245 203.656 129.252 205.054 129.252 207H131.252Z" fill="white"/>
</g>
<circle cx="121.252" cy="200" r="2" fill="white"/>
<rect x="18" y="168" width="56" height="8" rx="4" fill="white"/>
<rect opacity="0.6" x="255" y="168" width="24" height="8" rx="4" fill="white"/>
<rect x="291" y="168" width="14" height="8" rx="4" fill="white"/>
<path opacity="0.3" d="M243.252 161C236.249 168 236.249 176 243.252 183" stroke="white" stroke-width="2" stroke-linecap="round"/>
<path opacity="0.3" d="M317 161C324.003 168 324.003 176 317 183" stroke="white" stroke-width="2" stroke-linecap="round"/>
<g opacity="0.4">
<path d="M6 161C5 161 3 162 3 165C3 169 3 170 1 172" stroke="white" stroke-width="2" stroke-linecap="round"/>
<path d="M6 183C5 183 3 182 3 179C3 175 3 174 1 172" stroke="white" stroke-width="2" stroke-linecap="round"/>
</g>
<g opacity="0.4">
<path d="M25.0001 218C24.4478 218 24.0001 217.552 24 217C23.9999 216.448 24.4476 216 24.9999 216L25.0001 218ZM30.7071 227.293C31.0976 227.683 31.0976 228.316 30.7071 228.707C30.3166 229.097 29.6834 229.097 29.2929 228.707L30.7071 227.293ZM24.9999 216C26.5523 216 29 217.448 29 221H27C27 218.552 25.4477 218 25.0001 218L24.9999 216ZM29 221C29 223.054 29.0072 224.156 29.2201 225.007C29.4093 225.764 29.7748 226.36 30.7071 227.293L29.2929 228.707C28.2252 227.639 27.5907 226.736 27.2799 225.492C26.9928 224.344 27 222.946 27 221H29Z" fill="white"/>
<path d="M25.0001 238C24.4478 237.999 24.0001 238.447 24 238.999C23.9999 239.552 24.4476 239.999 24.9999 240L25.0001 238ZM30.7071 228.707C31.0976 228.316 31.0976 227.683 30.7071 227.293C30.3166 226.902 29.6834 226.902 29.2929 227.293L30.7071 228.707ZM24.9999 240C26.5523 240 29 238.552 29 235H27C27 237.447 25.4477 238 25.0001 238L24.9999 240ZM29 235C29 232.946 29.0072 231.844 29.2201 230.992C29.4093 230.236 29.7748 229.639 30.7071 228.707L29.2929 227.293C28.2252 228.36 27.5907 229.264 27.2799 230.507C26.9928 231.655 27 233.054 27 235H29Z" fill="white"/>
<path d="M42.0001 218C41.4478 218 41.0001 217.552 41 217C40.9999 216.448 41.4476 216 41.9999 216L42.0001 218ZM47.7071 227.293C48.0976 227.683 48.0976 228.316 47.7071 228.707C47.3166 229.097 46.6834 229.097 46.2929 228.707L47.7071 227.293ZM41.9999 216C43.5523 216 46 217.448 46 221H44C44 218.552 42.4477 218 42.0001 218L41.9999 216ZM46 221C46 223.054 46.0072 224.156 46.2201 225.007C46.4093 225.764 46.7748 226.36 47.7071 227.293L46.2929 228.707C45.2252 227.639 44.5907 226.736 44.2799 225.492C43.9928 224.344 44 222.946 44 221H46Z" fill="white"/>
<path d="M42.0001 238C41.4478 237.999 41.0001 238.447 41 238.999C40.9999 239.552 41.4476 239.999 41.9999 240L42.0001 238ZM47.7071 228.707C48.0976 228.316 48.0976 227.683 47.7071 227.293C47.3166 226.902 46.6834 226.902 46.2929 227.293L47.7071 228.707ZM41.9999 240C43.5523 240 46 238.552 46 235H44C44 237.447 42.4477 238 42.0001 238L41.9999 240ZM46 235C46 232.946 46.0072 231.844 46.2201 230.992C46.4093 230.236 46.7748 229.639 47.7071 228.707L46.2929 227.293C45.2252 228.36 44.5907 229.264 44.2799 230.507C43.9928 231.655 44 233.054 44 235H46Z" fill="white"/>
</g>
<rect opacity="0.6" x="25" y="140" width="39" height="8" rx="4" fill="white"/>
<rect opacity="0.6" x="236" y="140" width="39" height="8" rx="4" fill="white"/>
<circle cx="78" cy="138" r="2" fill="white"/>
<circle cx="78" cy="150" r="2" fill="white"/>
<g opacity="0.4">
<path d="M287 133C288 133 290 134 290 137C290 141 290 142 292 144" stroke="white" stroke-width="2" stroke-linecap="round"/>
<path d="M287 155C288 155 290 154 290 151C290 147 290 146 292 144" stroke="white" stroke-width="2" stroke-linecap="round"/>
</g>
</g>
<path fill-rule="evenodd" clip-rule="evenodd" d="M162.103 185.532L165 187.129L167.897 185.532L211.621 161.428C218.641 157.558 223 150.177 223 142.161V81.2319C223 76.8419 220.137 72.9652 215.941 71.6741L166.765 56.5429L165 56L163.235 56.5429L114.059 71.6741C109.863 72.9652 107 76.8419 107 81.2319V142.161C107 150.177 111.359 157.558 118.379 161.428L162.103 185.532ZM163.069 183.781L165 184.845L166.931 183.781L210.656 159.676C217.037 156.158 221 149.448 221 142.161V81.2319C221 77.7198 218.709 74.6185 215.353 73.5857L166.176 58.4545L165 58.0925L163.824 58.4545L114.647 73.5857C111.291 74.6185 109 77.7199 109 81.2319V142.161C109 149.448 112.963 156.158 119.344 159.676L163.069 183.781Z" fill="url(#paint0_linear_3080_16835)"/>
<path d="M113 81.2319C113 79.4759 114.145 77.9252 115.824 77.4088L165 62.2776L214.176 77.4088C215.855 77.9252 217 79.4759 217 81.2319V142.161C217 147.991 213.83 153.359 208.724 156.173L165 180.278L121.276 156.173C116.17 153.359 113 147.991 113 142.161V81.2319Z" fill="url(#paint1_linear_3080_16835)"/>
<path fill-rule="evenodd" clip-rule="evenodd" d="M169 109.278V115.278H165H161V109.278C161 107.068 162.791 105.278 165 105.278C167.209 105.278 169 107.068 169 109.278ZM158 115.278V109.278C158 105.412 161.134 102.278 165 102.278C168.866 102.278 172 105.412 172 109.278V115.278H173C175.209 115.278 177 117.068 177 119.278V131.278C177 133.487 175.209 135.278 173 135.278H157C154.791 135.278 153 133.487 153 131.278V119.278C153 117.068 154.791 115.278 157 115.278H158Z" fill="#42F1B2"/>
<defs>
<linearGradient id="paint0_linear_3080_16835" x1="128.091" y1="82.6703" x2="187.23" y2="170.359" gradientUnits="userSpaceOnUse">
<stop stop-color="#42F0B2"/>
<stop offset="1" stop-color="#6190F0"/>
</linearGradient>
<linearGradient id="paint1_linear_3080_16835" x1="121" y1="62.2776" x2="209" y2="180.278" gradientUnits="userSpaceOnUse">
<stop stop-color="white" stop-opacity="0.24"/>
<stop offset="0.505208" stop-color="white" stop-opacity="0.08"/>
<stop offset="1" stop-color="white" stop-opacity="0"/>
</linearGradient>
</defs>
</svg>

<svg xmlns="http://www.w3.org/2000/svg" width="324" height="240" fill="none">
  <g opacity=".4">
    <rect width="40" height="8" x="1" fill="#fff" rx="4"/>
    <rect width="16" height="8" x="53" fill="#fff" opacity=".6" rx="4"/>
    <g fill="#fff" opacity=".4">
      <path d="M25 78a1 1 0 1 1 0-2v2Zm5.707 9.293a1 1 0 0 1-1.414 1.414l1.414-1.414ZM25 76c1.552 0 4 1.448 4 5h-2c0-2.448-1.552-3-2-3v-2Zm4 5c0 2.054.007 3.156.22 4.007.19.757.555 1.353 1.487 2.286l-1.414 1.414c-1.068-1.068-1.702-1.971-2.013-3.215C26.993 84.344 27 82.946 27 81h2Z"/>
      <path d="M25 98a1 1 0 1 0 0 2v-2Zm5.707-9.293a1 1 0 0 0-1.414-1.414l1.414 1.414ZM25 100c1.552 0 4-1.448 4-5h-2c0 2.447-1.552 3-2 3v2Zm4-5c0-2.054.007-3.156.22-4.008.19-.756.555-1.353 1.487-2.285l-1.414-1.414c-1.068 1.067-1.702 1.97-2.013 3.214C26.993 91.655 27 93.054 27 95h2Z"/>
    </g>
    <rect width="47" height="8" x="42" y="56" fill="#fff" rx="4"/>
    <rect width="24" height="8" x="253" y="56" fill="#fff" rx="4"/>
    <rect width="14" height="8" x="289" y="56" fill="#fff" opacity=".6" rx="4"/>
    <path stroke="#fff" stroke-linecap="round" stroke-width="2" d="M241.252 49c-7.003 7-7.003 15 0 22M315 49c7.003 7 7.003 15 0 22M30.252 21c-7.003 7-7.003 15 0 22" opacity=".3"/>
    <rect width="22" height="8" x="42.252" y="28" fill="#fff" rx="4"/>
    <rect width="77" height="8" x="128" y="28" fill="#fff" rx="4"/>
    <path stroke="#fff" stroke-linecap="round" stroke-width="2" d="M81.252 21c-1 0-3 1-3 4 0 4 0 5-2 7m5 11c-1 0-3-1-3-4 0-4 0-5-2-7" opacity=".4"/>
    <g fill="#fff" opacity=".4">
      <path d="M93.252 22a1 1 0 1 1 0-2v2Zm5.707 9.293a1 1 0 0 1-1.414 1.414l1.414-1.414ZM93.252 20c1.552 0 4 1.448 4 5h-2c0-2.448-1.552-3-2-3v-2Zm4 5c0 2.054.007 3.156.22 4.008.19.756.555 1.353 1.487 2.285l-1.414 1.414c-1.068-1.067-1.702-1.97-2.013-3.214-.287-1.149-.28-2.547-.28-4.493h2Z"/>
      <path d="M93.252 42a1 1 0 1 0 0 2v-2Zm5.707-9.293a1 1 0 0 0-1.414-1.414l1.414 1.414ZM93.252 44c1.552 0 4-1.448 4-5h-2c0 2.448-1.552 3-2 3v2Zm4-5c0-2.054.007-3.156.22-4.008.19-.756.555-1.353 1.487-2.285l-1.414-1.414c-1.068 1.068-1.702 1.97-2.013 3.214-.287 1.149-.28 2.547-.28 4.493h2Z"/>
    </g>
    <circle cx="87.252" cy="32" r="2" fill="#fff"/>
    <path stroke="#fff" stroke-linecap="round" stroke-width="2" d="M110.253 21c7.003 7 7.003 15 0 22" opacity=".3"/>
    <path stroke="#fff" stroke-linecap="round" stroke-width="2" d="M217 21c1 0 3 1 3 4 0 4 0 5 2 7m-5 11c1 0 3-1 3-4 0-4 0-5 2-7" opacity=".4"/>
    <rect width="72" height="8" x="1" y="112" fill="#fff" opacity=".6" rx="4"/>
    <path stroke="#fff" stroke-linecap="round" stroke-width="2" d="M90 105c-1 0-3 1-3 4 0 4 0 5-2 7m5 11c-1 0-3-1-3-4 0-4 0-5-2-7" opacity=".4"/>
    <rect width="80" height="8" x="18" y="196" fill="#fff" opacity=".6" rx="4"/>
    <path stroke="#fff" stroke-linecap="round" stroke-width="2" d="M115.252 189c-1 0-3 1-3 4 0 4 0 5-2 7m5 11c-1 0-3-1-3-4 0-4 0-5-2-7" opacity=".4"/>
    <g fill="#fff" opacity=".4">
      <path d="M127.252 190a1 1 0 1 1 0-2v2Zm5.707 9.293a.999.999 0 1 1-1.414 1.414l1.414-1.414ZM127.252 188c1.552 0 4 1.448 4 5h-2c0-2.448-1.552-3-2-3v-2Zm4 5c0 2.054.007 3.156.22 4.008.189.756.555 1.353 1.487 2.285l-1.414 1.414c-1.068-1.068-1.702-1.971-2.013-3.214-.287-1.149-.28-2.547-.28-4.493h2Z"/>
      <path d="M127.252 210a1 1 0 1 0 0 2v-2Zm5.707-9.293a.999.999 0 1 0-1.414-1.414l1.414 1.414ZM127.252 212c1.552 0 4-1.448 4-5h-2c0 2.448-1.552 3-2 3v2Zm4-5c0-2.054.007-3.156.22-4.008.189-.756.555-1.353 1.487-2.285l-1.414-1.414c-1.068 1.068-1.702 1.971-2.013 3.214-.287 1.149-.28 2.547-.28 4.493h2Z"/>
    </g>
    <circle cx="121.252" cy="200" r="2" fill="#fff"/>
    <rect width="56" height="8" x="18" y="168" fill="#fff" rx="4"/>
    <rect width="24" height="8" x="255" y="168" fill="#fff" opacity=".6" rx="4"/>
    <rect width="14" height="8" x="291" y="168" fill="#fff" rx="4"/>
    <path stroke="#fff" stroke-linecap="round" stroke-width="2" d="M243.252 161c-7.003 7-7.003 15 0 22M317 161c7.003 7 7.003 15 0 22" opacity=".3"/>
    <path stroke="#fff" stroke-linecap="round" stroke-width="2" d="M6 161c-1 0-3 1-3 4 0 4 0 5-2 7m5 11c-1 0-3-1-3-4 0-4 0-5-2-7" opacity=".4"/>
    <g fill="#fff" opacity=".4">
      <path d="M25 218a1 1 0 0 1 0-2v2Zm5.707 9.293a1 1 0 1 1-1.414 1.414l1.414-1.414ZM25 216c1.552 0 4 1.448 4 5h-2c0-2.448-1.552-3-2-3v-2Zm4 5c0 2.054.007 3.156.22 4.007.19.757.555 1.353 1.487 2.286l-1.414 1.414c-1.068-1.068-1.702-1.971-2.013-3.215-.287-1.148-.28-2.546-.28-4.492h2Z"/>
      <path d="M25 238a.999.999 0 1 0 0 2v-2Zm5.707-9.293a1 1 0 1 0-1.414-1.414l1.414 1.414ZM25 240c1.552 0 4-1.448 4-5h-2c0 2.447-1.552 3-2 3v2Zm4-5c0-2.054.007-3.156.22-4.008.19-.756.555-1.353 1.487-2.285l-1.414-1.414c-1.068 1.067-1.702 1.971-2.013 3.214-.287 1.148-.28 2.547-.28 4.493h2Zm13-17a1 1 0 0 1 0-2v2Zm5.707 9.293a1 1 0 1 1-1.414 1.414l1.414-1.414ZM42 216c1.552 0 4 1.448 4 5h-2c0-2.448-1.552-3-2-3v-2Zm4 5c0 2.054.007 3.156.22 4.007.19.757.555 1.353 1.487 2.286l-1.414 1.414c-1.068-1.068-1.702-1.971-2.013-3.215-.287-1.148-.28-2.546-.28-4.492h2Z"/>
      <path d="M42 238a.999.999 0 1 0 0 2v-2Zm5.707-9.293a1 1 0 1 0-1.414-1.414l1.414 1.414ZM42 240c1.552 0 4-1.448 4-5h-2c0 2.447-1.552 3-2 3v2Zm4-5c0-2.054.007-3.156.22-4.008.19-.756.555-1.353 1.487-2.285l-1.414-1.414c-1.068 1.067-1.702 1.971-2.013 3.214-.287 1.148-.28 2.547-.28 4.493h2Z"/>
    </g>
    <rect width="39" height="8" x="25" y="140" fill="#fff" opacity=".6" rx="4"/>
    <rect width="39" height="8" x="236" y="140" fill="#fff" opacity=".6" rx="4"/>
    <circle cx="78" cy="138" r="2" fill="#fff"/>
    <circle cx="78" cy="150" r="2" fill="#fff"/>
    <path stroke="#fff" stroke-linecap="round" stroke-width="2" d="M287 133c1 0 3 1 3 4 0 4 0 5 2 7m-5 11c1 0 3-1 3-4 0-4 0-5 2-7" opacity=".4"/>
  </g>
  <path fill="url(#a)" fill-rule="evenodd" d="m162.103 185.532 2.897 1.597 2.897-1.597 43.724-24.104A22 22 0 0 0 223 142.161v-60.93a10 10 0 0 0-7.059-9.557l-49.176-15.131L165 56l-1.765.543-49.176 15.131A10 10 0 0 0 107 81.232v60.929a22 22 0 0 0 11.379 19.267l43.724 24.104Zm.966-1.751 1.931 1.064 1.931-1.064 43.725-24.105A20 20 0 0 0 221 142.161v-60.93a8 8 0 0 0-5.647-7.645l-49.177-15.131-1.176-.362-1.176.361-49.177 15.132A8 8 0 0 0 109 81.232v60.929a20 20 0 0 0 10.344 17.515l43.725 24.105Z" clip-rule="evenodd"/>
  <path fill="url(#b)" d="M113 81.232a4 4 0 0 1 2.824-3.823L165 62.278l49.176 15.13A4 4 0 0 1 217 81.233v60.929c0 5.83-3.17 11.198-8.276 14.012L165 180.278l-43.724-24.105A15.998 15.998 0 0 1 113 142.161v-60.93Z"/>
  <path fill="#42F1B2" fill-rule="evenodd" d="M169 109.278v6h-8v-6a4 4 0 1 1 8 0Zm-11 6v-6a7 7 0 1 1 14 0v6h1a4 4 0 0 1 4 4v12a4 4 0 0 1-4 4h-16a4 4 0 0 1-4-4v-12a4 4 0 0 1 4-4h1Z" clip-rule="evenodd"/>
  <defs>
    <linearGradient id="a" x1="128.091" x2="187.23" y1="82.67" y2="170.359" gradientUnits="userSpaceOnUse">
      <stop stop-color="#42F0B2"/>
      <stop offset="1" stop-color="#6190F0"/>
    </linearGradient>
    <linearGradient id="b" x1="121" x2="209" y1="62.278" y2="180.278" gradientUnits="userSpaceOnUse">
      <stop stop-color="#fff" stop-opacity=".24"/>
      <stop offset=".505" stop-color="#fff" stop-opacity=".08"/>
      <stop offset="1" stop-color="#fff" stop-opacity="0"/>
    </linearGradient>
  </defs>
</svg>
